X:1
T:James Gibb editions
T:Psalm 75 (Becker) - Schütz
%%score [ ( 1 2 ) ( 3 4 ) ]
L:1/8
Q:1/4=100
M:3/4
K:F
V:1 treble nm="Soprano Alto"
V:2 treble 
V:3 bass nm="Tenor Bass"
V:4 bass 
V:1
"^Cornelius Becker\n(1561-1604)""^Psalm 75, SWV 172""^Heinrich Schütz\n(1585-1672)" c2 c2 c2 | %1
w: ~Aus un- sers|
w: ver- kün- den|
 B4 B2 | A6 | G4 G2 | B4 B2 | A2 G4 | F6 :| G2 G2 G2 | A4 G2 | F6 | E4 c2 | d4 d2 | d2 ^c4 | d6 | %14
w: Her- zens|Grun-|de dan-|ken wir|Gott, dem|Herrn,|daß er uns|ist so|na-|he mit|sei- nem|Se- ~~~gen|mild,|
w: sei- ne|Wun-|der, sa-|gen sein'm|Na- men|Ehr,||||||||
 B2 B2 B2 | c4 A2 | B6 | A4 F2 | G4 G2 | B2 A4 | G6- | G4 B2 | d4 c2 | _e2 d4 | c12 |] %25
w: schafft, daß wir|Trost emp-|fa-|hen, wenn|er aus|Nö- ten|hilft,|* wenn|er aus|Nö- ten|hilft.|
w: |||||||||||
V:2
 G2 G2 G2 | G4 F2 | F6 | E4 E2 | F4 F2 | F2 E4 | F6 :| E2 E2 E2 | F4 E2 | D6 | ^C4 A2 | F4 G2 | %12
 (F2 E2) A2 | ^F6 | G2 G2 G2 | G4 F2 | F6 | F4 C2 | _E4 E2 | G2 ^F4 | G6- | G4 G2 | F4 F2 | G2 G4 | %24
 G12 |] %25
V:3
 _E2 E2 E2 | D4 D2 | C6 | C4 C2 | D4 D2 | C2 C4 | C6 :| C2 C2 C2 | C4 C2 | A,6 | A,4 E2 | D4 B,2 | %12
 A,4 E2 | D6 | D2 D2 D2 | _E4 C2 | %16
"^2. Die Zeit kommt, ich werd richten \ndas Land in G'rechtigkeit, \nall die den Herren fürchten, \nbestehen jeder Zeit,\nobgleich vons Feindes Wüten \ndas Land erzittern tut, \ndennoch durch Gottes Güte \ndie Frommen sind behüt.\n\n3. Ich sprach zu stolzen Prachern:\nRühmet doch nicht so hoch, \ntut euch so breit nicht machen, \nauf G'walt so sehr nicht pocht, \ndie Hörner tut ihr wetzen \nund redet Lästerwort, \ndie Frommen zu verletzen \nund pochet immer fort." D6 | %17
 C4 A,2 | C4 C2 | D2 D4 | %20
"^5. Vergebens ist solch Dichten, \neur Trutz wird nicht bestehn, \ndenn Gott, der Höchst, ist Richter, \nsollt er die Läng zusehn? \nDen Elenden erhöhen\ndurch seine Macht und Stärk,\nstürzen, die sich aufblähen, \ndas ist sein altes Werk.\n\n7. Ich will vor allen Dingen \nrühmen dein Herrlichkeit, \ndir, Gott Jakob, lobsingen \nin alle Ewigkeit, \ndenn du, Herr, wirst zerbrechen \ndes Gottlos'n große Macht, \ndu hilfst auf dem Gerechten, \ndaß er wird hoch geacht." D6- | %21
 D4 G,2 | B,4 A,2 | C2 =B,4 | C12 |] %25
V:4
 C,2 C,2 C,2 | G,4 B,2 | F,6 | C,4 C,2 | B,,4 B,,2 | F,2 C,4 | F,6 :| C,2 C,2 C,2 | F,4 C,2 | D,6 | %10
 A,,4 A,2 | B,4 G,2 | D,2 A,4 | D,6 | G,2 G,2 G,2 | C,4 F,2 | B,,6 | F,4 F,2 | C,4 C,2 | G,2 D,4 | %20
 G,6- | G,4 _E,2 | B,,4 F,2 | C,2 G,4 | C,12 |] %25

